svgs/pinnit.svg

<svg width="24" height="24" viewBox="0 0 24 24" fill="none" xmlns="http://www.w3.org/2000/svg">
<path d="M16 3.98901H8V4.98901H16V3.98901Z" fill="white"/>
<path d="M12 5.98901H5V6.98901H12V5.98901Z" fill="white"/>
<path fill-rule="evenodd" clip-rule="evenodd" d="M2 8.98901C2 8.43673 2.44772 7.98901 3 7.98901H13V10.5748L12 11.5748V14.989H14.5V16.989H3C2.44772 16.989 2 16.5413 2 15.989V8.98901ZM4 10.489H10V11.489H4V10.489ZM4 13.489H10V14.5L4 14.489V13.489Z" fill="white"/>
<path d="M21 16.989H17.5V14.989H20V11.5748L19 10.5748V7.98901H21C21.5523 7.98901 22 8.43673 22 8.98901V15.989C22 16.5413 21.5523 16.989 21 16.989Z" fill="white"/>
<path d="M19 6.98901V5.98901H13V6.98901H14V10.989L13 11.989V13.989H15.5V19.511C15.5 19.7872 15.7239 20.011 16 20.011C16.2761 20.011 16.5 19.7872 16.5 19.511V13.989H19V11.989L18 10.989V6.98901H19Z" fill="white"/>
</svg>

<svg xmlns="http://www.w3.org/2000/svg" viewBox="0 0 24 24"><path fill-rule="evenodd" d="M19 6.989v-1h-6v1h1v4l-1 1v2h2.5v5.522a.5.5 0 1 0 1 0v-5.522H19v-2l-1-1v-4h1m2 10h-3.5v-2H20v-3.414l-1-1V7.989h2a1 1 0 0 1 1 1v7a1 1 0 0 1-1 1m-19-8a1 1 0 0 1 1-1h10v2.586l-1 1v3.414h2.5v2H3a1 1 0 0 1-1-1zm2 1.5h6v1H4zm0 3h6V14.5l-6-.011zm12-9.5H8v1h8zm-4 2H5v1h7z"/></svg>
